!!!OTL: Es, es, es und es (3-47), S. 28f
!!!id: K1147
**kern
*clefG2
*k[f#]
*G:
{8g
=1
8g
2b
2a
=2
4g
8f#
8e
4d}
=3
{4d
=4
4g
4g
4a
4dd
=5
2b}
2r
=6
{2b
2a
=7
4g
8f#
8e
4d}
=8
{4d
=9
4g
4g
4a
4dd
=10
2b}
4r
=11
{8g
8a
=12
4b
4b
4b
8cc
8b
=13
4a
4a
4a}
=14
{8b
8a
=15
4g
4g
4g
8a
8g
=16
4f#
4f#
4f#}
=17
{4d
=18
4g
4g
4a
4a
=19
4.b
8cc
4dd}
=20
{4b
=21
2a
2f#
=22
2g}
2r
==
*-
!!!minrhy: 8
!!!meters: 4/4 ]  ZZ[8
!!!cut: Es, es, es und es (3-47), S. 28f
!!!reg: Luxemburg
!!!trd: KINTZELE, Guillaume: An der Ucht, Bd. 3 Luxemburg 1928
!!!rhy1:   X__X__  X_XXX_
!!!rhy2: X_  X_X_X_X_  X__0__
!!!key: K1147  08  G 4/4 ]  ZZ[8
!!!mod: HEPTATONIK IONISCH]  AMBITUS[8
!!!kad: -53-532-751
!!!akz: 321-5_123_321-5_123_3322_11-7-7_1235_2-71_
!!!fot: 'a__b__a__b__c__cs'bv_d__
!!!for: 'a__b__a__bv_c__c__bw_aw_
!!!fok: '\__^a_\__^a_^a_\__/__\__
!! PHRAS[VORWIEGEND AUFTAKTIG]
!!!fkt: Abschiedslied
!!!bem: in der Quelle mit einer 2. Stimme versehen
!! KINTZELE
!! PR[16] 2K[11] 2G[9] 3K[6] 3G[5] 4A[4] 4Ü[0] 5A[1] 6K[0] 6G[3]
!! 7K[0] 7G[0] 8A[0] MEHR[0] SI[39] ABS[80] SR[20] SP[19]
!! ST[20] 2k[14] 2g[18] 3k[5] 3g[0] 4d[0] 4ü[5] 5d[3] 6k[0] 6g[1]
!! 7k[0] 7g[0] 8d[0] mehr[0] si[45] dm[-6] sr[31] sp[14]
!! 1F[6] 2F[64] 3F[17] 4F[0] LF[0] 2P[3] 3P[10] 4P[0] TRI[0] DF[5] AB[88]
!! TF[0] U3K[0] U3[0] U4[0] U4Ü[0] U5[0] U6K[0] U6[0] U7K[0] U7[4]
!! N1[7] N2K[0] N2[9] N3K[0] N3[16] N4[14] N4Ü[6] N5[20] N6K[0] N6[11]
!!!n7k: 1] N7[10] O1[2] O2K[0] O2[0] O3K[0] O3[0] HÖ[0
